recipes/glowingbear/icon.svg

<svg height="457" viewBox="0 0 457 437" width="457" xmlns="http://www.w3.org/2000/svg" xmlns:xlink="http://www.w3.org/1999/xlink"><defs><filter id="a" height="200%" width="200%" x="-50%" y="-50%"><feOffset dx="0" dy="27" in="SourceAlpha" result="shadowOffsetInner1"/><feGaussianBlur in="shadowOffsetInner1" result="shadowBlurInner1" stdDeviation="6.5"/><feComposite in="shadowBlurInner1" in2="SourceAlpha" k2="-1" k3="1" operator="arithmetic" result="shadowInnerInner1"/><feColorMatrix in="shadowInnerInner1" result="shadowMatrixInner1" type="matrix" values="0 0 0 0 0 0 0 0 0 0 0 0 0 0 0 0 0 0 0.7 0"/><feMerge><feMergeNode in="SourceGraphic"/><feMergeNode in="shadowMatrixInner1"/></feMerge></filter><path id="b" d="m412.43975 168.568132c16.489655-17.902906 26.56025-41.809462 26.56025-68.068132 0-55.5046201-44.99538-100.5-100.5-100.5-26.25867 0-50.165226 10.0705946-68.068132 26.5602497-16.258708-4.2804471-33.329049-6.5602497-50.931868-6.5602497s-34.67316 2.2798026-50.931868 6.5602497c-17.902906-16.4896551-41.809462-26.5602497-68.068132-26.5602497-55.5046201 0-100.5 44.9953799-100.5 100.5 0 26.25867 10.0705946 50.165226 26.5602497 68.068132-4.2804471 16.258708-6.5602497 33.329049-6.5602497 50.931868 0 110.180813 89.319187 199.5 199.5 199.5s199.5-89.319187 199.5-199.5c0-17.602819-2.279803-34.67316-6.56025-50.931868zm-7.620223-23.0824c8.9418-12.914655 14.180473-28.588414 14.180473-45.485732 0-44.1827822-35.817218-80-80-80-16.897318 0-32.571077 5.2386726-45.485732 14.1804726 50.649199 20.2467769 91.058482 60.6560601 111.305256 111.3052654zm-259.632309-111.1856505c-12.660745-8.4042938-27.852245-13.3000815-44.187218-13.3000815-44.1827822 0-80 35.8172178-80 80 0 16.334973 4.8957877 31.526473 13.3000815 44.187218 20.246097-50.4099802 60.4771563-90.6410395 110.8871435-110.8871317z"/><filter id="c" height="200%" width="200%" x="-50%" y="-50%"><feOffset dx="0" dy="12" in="SourceAlpha" result="shadowOffsetOuter1"/><feGaussianBlur in="shadowOffsetOuter1" result="shadowBlurOuter1" stdDeviation="0"/><feColorMatrix in="shadowBlurOuter1" result="shadowMatrixOuter1" type="matrix" values="0 0 0 0 0 0 0 0 0 0 0 0 0 0 0 0 0 0 0.7 0"/><feOffset dx="0" dy="-21" in="SourceAlpha" result="shadowOffsetInner1"/><feGaussianBlur in="shadowOffsetInner1" result="shadowBlurInner1" stdDeviation="0"/><feComposite in="shadowBlurInner1" in2="SourceAlpha" k2="-1" k3="1" operator="arithmetic" result="shadowInnerInner1"/><feColorMatrix in="shadowInnerInner1" result="shadowMatrixInner1" type="matrix" values="0 0 0 0 0.799641927 0 0 0 0 0.744202558 0 0 0 0 0.670283399 0 0 0 0.7 0"/><feMerge><feMergeNode in="shadowMatrixOuter1"/><feMergeNode in="SourceGraphic"/><feMergeNode in="shadowMatrixInner1"/></feMerge></filter><filter id="d" height="200%" width="200%" x="-50%" y="-50%"><feGaussianBlur in="SourceGraphic" result="blur" stdDeviation="11.676"/></filter><filter id="e" height="200%" width="200%" x="-50%" y="-50%"><feGaussianBlur in="SourceGraphic" result="blur" stdDeviation="24.993"/></filter><filter id="f" height="200%" width="200%" x="-50%" y="-50%"><feOffset dx="0" dy="-10" in="SourceAlpha" result="shadowOffsetInner1"/><feGaussianBlur in="shadowOffsetInner1" result="shadowBlurInner1" stdDeviation="0"/><feComposite in="shadowBlurInner1" in2="SourceAlpha" k2="-1" k3="1" operator="arithmetic" result="shadowInnerInner1"/><feColorMatrix in="shadowInnerInner1" result="shadowMatrixInner1" type="matrix" values="0 0 0 0 0 0 0 0 0 0 0 0 0 0 0 0 0 0 0.7 0"/><feMerge><feMergeNode in="SourceGraphic"/><feMergeNode in="shadowMatrixInner1"/></feMerge></filter><mask id="g" fill="#fff"><use fill="#fff" fill-rule="evenodd" xlink:href="#b"/></mask></defs><g fill="none" fill-rule="evenodd" transform="translate(9 9)"><path d="m99 194c52.467054 0 95-42.532946 95-95 0-52.4670538-42.532946-95-95-95-52.4670538 0-95 42.5329462-95 95 0 52.467054 42.5329462 95 95 95zm240 0c52.467054 0 95-42.532946 95-95 0-52.4670538-42.532946-95-95-95s-95 42.5329462-95 95c0 52.467054 42.532946 95 95 95z" fill="#907b62" filter="url(#a)"/><use fill="#907b62" stroke="#000" stroke-width="9" xlink:href="#b"/><path d="m416.042773 172.705747c.633139 5.524517.957227 11.126903.957227 16.794253 0 93.61227-88.423757 169.5-197.5 169.5s-197.5-75.88773-197.5-169.5c0-7.069896.5043471-14.038696 1.4838477-20.881345-42.5776981-32.763918-68.4838477-76.0989854-68.4838477-123.618655 0-102.1726838 119.7638221-185 267.5-185 147.736178 0 267.5 82.8273162 267.5 185 0 49.523079-28.136581 94.501275-73.957227 127.705747z" fill="#beaa90" mask="url(#g)"/><path d="m408.22706 154.661565c11.756704-14.897946 18.77294-33.71039 18.77294-54.161565 0-48.324918-39.175082-87.5-87.5-87.5-20.188266 0-38.779664 6.8370019-53.58507 18.3218822 57.278473 20.2156742 102.562971 65.8426913 122.312128 123.3396848zm-254.454432-123.5809286c-14.754134-11.3393137-33.22612-18.0806364-53.272628-18.0806364-48.324918 0-87.5 39.175082-87.5 87.5 0 20.046508 6.7413227 38.518494 18.0806364 53.272628 19.989038-57.3075386 65.384453-102.7029536 122.6919946-122.6919894z" fill="#907b62" mask="url(#g)"/><path d="m219 390c44.182782 0 80-35.817218 80-80s-35.817218-80-80-80-80 35.817218-80 80 35.817218 80 80 80z" fill="#d9cdbd" filter="url(#c)"/><path d="m121.353143 210.466662c34.141832 9.148277 67.033728-2.896267 73.46611-26.902243s-16.030564-50.882805-50.172396-60.031081c-34.141832-9.148277-67.033728 2.896267-73.4661099 26.902243-6.4323818 24.005976 16.0305636 50.882805 50.1723959 60.031081zm196.293714 0c34.141832-9.148276 56.604778-36.025105 50.172396-60.031081s-39.324278-36.05052-73.46611-26.902243c-34.141832 9.148276-56.604778 36.025105-50.172396 60.031081s39.324278 36.05052 73.46611 26.902243z" fill="#f6a623" filter="url(#d)"/><path d="m121.353143 210.466662c34.141832 9.148277 67.033728-2.896267 73.46611-26.902243s-16.030564-50.882805-50.172396-60.031081c-34.141832-9.148277-67.033728 2.896267-73.4661099 26.902243-6.4323818 24.005976 16.0305636 50.882805 50.1723959 60.031081zm196.293714 0c34.141832-9.148276 56.604778-36.025105 50.172396-60.031081s-39.324278-36.05052-73.46611-26.902243c-34.141832 9.148276-56.604778 36.025105-50.172396 60.031081s39.324278 36.05052 73.46611 26.902243z" fill="#fff" filter="url(#e)"/><path d="m121.353143 210.466662c34.141832 9.148277 67.033728-2.896267 73.46611-26.902243s-16.030564-50.882805-50.172396-60.031081c-34.141832-9.148277-67.033728 2.896267-73.4661099 26.902243-6.4323818 24.005976 16.0305636 50.882805 50.1723959 60.031081zm196.293714 0c34.141832-9.148276 56.604778-36.025105 50.172396-60.031081s-39.324278-36.05052-73.46611-26.902243c-34.141832 9.148276-56.604778 36.025105-50.172396 60.031081s39.324278 36.05052 73.46611 26.902243z" fill="#fff"/><path d="m220.000002 328.000001c-20 0-60.000002-40.000001-40.000002-60.000001s59.999999-19.999997 80 0c20 20-19.999998 60.000001-39.999998 60.000001z" fill="#4a4a4a" filter="url(#f)" stroke="#979797"/></g></svg>

<svg xmlns="http://www.w3.org/2000/svg" xmlns:xlink="http://www.w3.org/1999/xlink" width="457px" height="457px" viewBox="0 0 457 437" version="1.1"><title>glowing-bear</title><description>Created with Sketch (http://www.bohemiancoding.com/sketch)</description><defs><filter x="-50%" y="-50%" width="200%" height="200%" filterUnits="objectBoundingBox" id="filter-1"><feOffset dx="0" dy="27" in="SourceAlpha" result="shadowOffsetInner1"/><feGaussianBlur stdDeviation="6.5" in="shadowOffsetInner1" result="shadowBlurInner1"/><feComposite in="shadowBlurInner1" in2="SourceAlpha" operator="arithmetic" k2="-1" k3="1" result="shadowInnerInner1"/><feColorMatrix values="0 0 0 0 0   0 0 0 0 0   0 0 0 0 0  0 0 0 0.7 0" in="shadowInnerInner1" type="matrix" result="shadowMatrixInner1"/><feMerge><feMergeNode in="SourceGraphic"/><feMergeNode in="shadowMatrixInner1"/></feMerge></filter><path d="M412.43975 168.568132C428.929405 150.665226 439 126.75867 439 100.5 439 44.9953799 394.00462 0 338.5 0 312.24133 0 288.334774 10.0705946 270.431868 26.5602497 254.17316 22.2798026 237.102819 20 219.5 20 201.897181 20 184.82684 22.2798026 168.568132 26.5602497 150.665226 10.0705946 126.75867 0 100.5 0 44.9953799 0 0 44.9953799 0 100.5 0 126.75867 10.0705946 150.665226 26.5602497 168.568132 22.2798026 184.82684 20 201.897181 20 219.5 20 329.680813 109.319187 419 219.5 419 329.680813 419 419 329.680813 419 219.5 419 201.897181 416.720197 184.82684 412.43975 168.568132ZM404.819527 145.485732C413.761327 132.571077 419 116.897318 419 100 419 55.8172178 383.182782 20 339 20 322.102682 20 306.428923 25.2386726 293.514268 34.1804726 344.163467 54.4272495 384.57275 94.8365327 404.819524 145.485738ZM145.187218 34.3000815C132.526473 25.8957877 117.334973 21 101 21 56.8172178 21 21 56.8172178 21 101 21 117.334973 25.8957877 132.526473 34.3000815 145.187218 54.5461785 94.7772378 94.7772378 54.5461785 145.187225 34.3000863Z" id="path-2"/><filter x="-50%" y="-50%" width="200%" height="200%" filterUnits="objectBoundingBox" id="filter-4"><feOffset dx="0" dy="12" in="SourceAlpha" result="shadowOffsetOuter1"/><feGaussianBlur stdDeviation="0" in="shadowOffsetOuter1" result="shadowBlurOuter1"/><feColorMatrix values="0 0 0 0 0   0 0 0 0 0   0 0 0 0 0  0 0 0 0.7 0" in="shadowBlurOuter1" type="matrix" result="shadowMatrixOuter1"/><feOffset dx="0" dy="-21" in="SourceAlpha" result="shadowOffsetInner1"/><feGaussianBlur stdDeviation="0" in="shadowOffsetInner1" result="shadowBlurInner1"/><feComposite in="shadowBlurInner1" in2="SourceAlpha" operator="arithmetic" k2="-1" k3="1" result="shadowInnerInner1"/><feColorMatrix values="0 0 0 0 0.799641927   0 0 0 0 0.744202558   0 0 0 0 0.670283399  0 0 0 0.7 0" in="shadowInnerInner1" type="matrix" result="shadowMatrixInner1"/><feMerge><feMergeNode in="shadowMatrixOuter1"/><feMergeNode in="SourceGraphic"/><feMergeNode in="shadowMatrixInner1"/></feMerge></filter><path id="path-5" d="M219 390C263.182782 390 299 354.182782 299 310 299 265.817218 263.182782 230 219 230 174.817218 230 139 265.817218 139 310 139 354.182782 174.817218 390 219 390Z"/><filter x="-50%" y="-50%" width="200%" height="200%" filterUnits="objectBoundingBox" id="filter-7"><feGaussianBlur stdDeviation="11.6761364" in="SourceGraphic" result="blur"/></filter><filter x="-50%" y="-50%" width="200%" height="200%" filterUnits="objectBoundingBox" id="filter-8"><feGaussianBlur stdDeviation="24.9928977" in="SourceGraphic" result="blur"/></filter><filter x="-50%" y="-50%" width="200%" height="200%" filterUnits="objectBoundingBox" id="filter-9"><feOffset dx="0" dy="-10" in="SourceAlpha" result="shadowOffsetInner1"/><feGaussianBlur stdDeviation="0" in="shadowOffsetInner1" result="shadowBlurInner1"/><feComposite in="shadowBlurInner1" in2="SourceAlpha" operator="arithmetic" k2="-1" k3="1" result="shadowInnerInner1"/><feColorMatrix values="0 0 0 0 0   0 0 0 0 0   0 0 0 0 0  0 0 0 0.7 0" in="shadowInnerInner1" type="matrix" result="shadowMatrixInner1"/><feMerge><feMergeNode in="SourceGraphic"/><feMergeNode in="shadowMatrixInner1"/></feMerge></filter></defs><g id="Page-1" stroke="none" stroke-width="1" fill="none" fill-rule="evenodd"><g id="smalleyes-copy" transform="translate(9.000000, 9.000000)"><path d="M99 194C151.467054 194 194 151.467054 194 99 194 46.5329462 151.467054 4 99 4 46.5329462 4 4 46.5329462 4 99 4 151.467054 46.5329462 194 99 194ZM339 194C391.467054 194 434 151.467054 434 99 434 46.5329462 391.467054 4 339 4 286.532946 4 244 46.5329462 244 99 244 151.467054 286.532946 194 339 194Z" id="Path" fill="#907B62" filter="url(#filter-1)"/><mask id="mask-3" fill="white"><use xlink:href="#path-2"/></mask><use id="Oval-2" stroke="#000000" stroke-width="9" fill="#907B62" xlink:href="#path-2"/><path d="M416.042773 172.705747C416.675912 178.230264 417 183.83265 417 189.5 417 283.11227 328.576243 359 219.5 359 110.423757 359 22 283.11227 22 189.5 22 182.430104 22.5043471 175.461304 23.4838477 168.618655 -19.0938504 135.854737-45 92.5196696-45 45 -45-57.1726838 74.7638221-140 222.5-140 370.236178-140 490-57.1726838 490 45 490 94.523079 461.863419 139.501275 416.042773 172.705747Z" id="Oval-1-copy" fill="#BEAA90" mask="url(#mask-3)"/><path d="M408.22706 154.661565C419.983764 139.763619 427 120.951175 427 100.5 427 52.175082 387.824918 13 339.5 13 319.311734 13 300.720336 19.8370019 285.91493 31.3218822 343.193403 51.5375564 388.477901 97.1645735 408.227058 154.661567ZM153.772628 31.0806364C139.018494 19.7413227 120.546508 13 100.5 13 52.175082 13 13 52.175082 13 100.5 13 120.546508 19.7413227 139.018494 31.0806364 153.772628 51.0696744 96.4650894 96.4650894 51.0696744 153.772631 31.0806386Z" id="Oval-2-copy" fill="#907B62" mask="url(#mask-3)"/><mask id="mask-6" fill="white"><use xlink:href="#path-5"/></mask><use id="Oval-63" fill="#D9CDBD" filter="url(#filter-4)" xlink:href="#path-5"/><path d="M121.353143 210.466662C155.494975 219.614939 188.386871 207.570395 194.819253 183.564419 201.251635 159.558443 178.788689 132.681614 144.646857 123.533338 110.505025 114.385061 77.613129 126.429605 71.1807471 150.435581 64.7483653 174.441557 87.2113107 201.318386 121.353143 210.466662ZM317.646857 210.466662C351.788689 201.318386 374.251635 174.441557 367.819253 150.435581 361.386871 126.429605 328.494975 114.385061 294.353143 123.533338 260.211311 132.681614 237.748365 159.558443 244.180747 183.564419 250.613129 207.570395 283.505025 219.614939 317.646857 210.466662Z" id="Oval-4-copy" fill="#F6A623" filter="url(#filter-7)"/><path d="M121.353143 210.466662C155.494975 219.614939 188.386871 207.570395 194.819253 183.564419 201.251635 159.558443 178.788689 132.681614 144.646857 123.533338 110.505025 114.385061 77.613129 126.429605 71.1807471 150.435581 64.7483653 174.441557 87.2113107 201.318386 121.353143 210.466662ZM317.646857 210.466662C351.788689 201.318386 374.251635 174.441557 367.819253 150.435581 361.386871 126.429605 328.494975 114.385061 294.353143 123.533338 260.211311 132.681614 237.748365 159.558443 244.180747 183.564419 250.613129 207.570395 283.505025 219.614939 317.646857 210.466662Z" id="Oval-4-copy-3" fill="#FFFFFF" filter="url(#filter-8)"/><path d="M121.353143 210.466662C155.494975 219.614939 188.386871 207.570395 194.819253 183.564419 201.251635 159.558443 178.788689 132.681614 144.646857 123.533338 110.505025 114.385061 77.613129 126.429605 71.1807471 150.435581 64.7483653 174.441557 87.2113107 201.318386 121.353143 210.466662ZM317.646857 210.466662C351.788689 201.318386 374.251635 174.441557 367.819253 150.435581 361.386871 126.429605 328.494975 114.385061 294.353143 123.533338 260.211311 132.681614 237.748365 159.558443 244.180747 183.564419 250.613129 207.570395 283.505025 219.614939 317.646857 210.466662Z" id="Oval-4-copy" fill="#FFFFFF"/><path d="M220.000002 328.000001C200.000002 328.000001 160 288 180 268 200 248 239.999999 248.000003 260 268 280 288 240.000002 328.000001 220.000002 328.000001Z" id="Path-1" stroke="#979797" fill="#4A4A4A" filter="url(#filter-9)"/></g></g></svg>
